templates/main/source/images/small/truck.svg

<?xml version="1.0" encoding="utf-8"?>
<svg width="24px" height="24px" viewBox="0 0 24 24" version="1.1" xmlns:xlink="http://www.w3.org/1999/xlink" xmlns="http://www.w3.org/2000/svg">
  <desc>Created with Lunacy</desc>
  <defs>
    <rect width="24" height="24" id="artboard_1" />
    <clipPath id="clip_1">
      <use xlink:href="#artboard_1" clip-rule="evenodd" />
    </clipPath>
  </defs>
  <g id="truck" clip-path="url(#clip_1)">
    <path d="M11.2941 0C17.5317 3.13475e-16 22.5882 5.05655 22.5882 11.2941C22.5882 17.5317 17.5317 22.5882 11.2941 22.5882C5.05655 22.5882 7.83687e-16 17.5317 0 11.2941C-7.83687e-16 5.05655 5.05655 1.09716e-15 11.2941 0Z" transform="translate(0.7058824 0.7058824)" id="Path" fill="#FFFFFF" stroke="none" />
    <path d="M0 12C0 18.6274 5.37258 24 12 24C15.1826 24 18.2348 22.7357 20.4853 20.4853C22.7357 18.2348 24 15.1826 24 12C24 5.37258 18.6274 0 12 0C5.37258 0 0 5.37258 0 12ZM1.41177 12.0001C1.41177 6.15238 6.15229 1.41187 12 1.41187C14.8082 1.41187 17.5013 2.52741 19.487 4.51309C21.4727 6.49877 22.5882 9.19193 22.5882 12.0001C22.5882 17.8478 17.8477 22.5883 12 22.5883C6.15229 22.5883 1.41177 17.8478 1.41177 12.0001Z" id="Shape" fill="#8C0014" fill-rule="evenodd" stroke="none" />
    <g id="delivery-truck" transform="translate(4 4)">
      <g id="delivery-truck">
        <path d="M0 0L16 0L16 16L0 16L0 0Z" id="Rectangle-4" fill="none" stroke="none" />
        <path d="M0.561412 0.708777L0.561412 7.75309C0.561412 7.8836 0.663608 7.98938 0.789725 7.98938L8.50688 7.98938C8.63299 7.98938 8.73519 7.8836 8.73519 7.75312L8.73519 0.708777C8.73519 0.317338 8.42855 0 8.05027 0L1.24635 0C0.868052 0 0.561412 0.317338 0.561412 0.708777ZM16 8.93252L16 9.64931C16 9.77979 15.8978 9.88557 15.7717 9.88557L13.9232 9.88557C13.791 8.94727 13.0106 8.22375 12.068 8.22375C11.1252 8.22375 10.3448 8.94729 10.2126 9.88557L6.49048 9.88557C6.42384 9.41259 6.19315 8.99475 5.85875 8.69626L9.388 8.69626L9.388 1.93852C9.388 1.67756 9.59244 1.46601 9.84463 1.46601L12.0001 1.46601C12.607 1.46601 13.1742 1.77796 13.5138 2.29844L14.9033 4.42813C15.1071 4.74052 15.2161 5.10882 15.2161 5.48576L15.2161 8.69626L15.7717 8.69626C15.8978 8.69626 16 8.80204 16 8.93252ZM12.5727 2.84882L13.6839 4.48267C13.7903 4.6392 13.6821 4.8549 13.4972 4.8549L10.6528 4.8549C10.5267 4.8549 10.4245 4.74915 10.4245 4.61864L10.4245 2.98479C10.4245 2.85431 10.5267 2.74853 10.6528 2.74853L12.386 2.74853C12.4603 2.74853 12.53 2.78595 12.5727 2.84882ZM0.228314 8.69626L3.41163 8.69626C3.07723 8.99475 2.84651 9.41256 2.7799 9.88557L0.228314 9.88557C0.102222 9.88557 0 9.77979 0 9.64931L0 8.93252C0 8.80204 0.102222 8.69626 0.228314 8.69626ZM4.63519 11.6364C5.41974 11.6364 6.05579 10.9782 6.05579 10.1663C6.05579 9.35442 5.41974 8.69629 4.63519 8.69629C3.85064 8.69629 3.21459 9.35442 3.21459 10.1663C3.21459 10.9782 3.85064 11.6364 4.63519 11.6364ZM13.4886 10.1663C13.4886 10.9782 12.8525 11.6364 12.068 11.6364C11.2834 11.6364 10.6474 10.9782 10.6474 10.1663C10.6474 9.35442 11.2834 8.69629 12.068 8.69629C12.8525 8.69626 13.4886 9.35442 13.4886 10.1663ZM5.34546 10.1663C5.34546 9.76039 5.02745 9.43131 4.63516 9.43131C4.24288 9.43131 3.92484 9.76039 3.92484 10.1663C3.92484 10.5723 4.24288 10.9014 4.63516 10.9014C5.02745 10.9014 5.34546 10.5723 5.34546 10.1663ZM12.068 9.43131C12.4603 9.43131 12.7783 9.76039 12.7783 10.1663C12.7783 10.5723 12.4603 10.9014 12.068 10.9014C11.6757 10.9014 11.3577 10.5723 11.3577 10.1663C11.3577 9.76039 11.6757 9.43131 12.068 9.43131Z" transform="translate(0 1.7777778)" id="Shape" fill="#8C0014" fill-rule="evenodd" stroke="none" />
      </g>
    </g>
  </g>
</svg>

<svg width="24" height="24" viewBox="0 0 24 24" xmlns:xlink="http://www.w3.org/1999/xlink" xmlns="http://www.w3.org/2000/svg"><defs><clipPath id="clip_1"><use xlink:href="#artboard_1" clip-rule="evenodd"/></clipPath><path id="artboard_1" d="M0 0h24v24H0z"/></defs><g id="truck" clip-path="url(#clip_1)"><path d="M11.294 0c6.238 0 11.294 5.057 11.294 11.294 0 6.238-5.056 11.294-11.294 11.294C5.057 22.588 0 17.532 0 11.294 0 5.057 5.057 0 11.294 0z" transform="translate(.706 .706)" id="Path" fill="#FFF" stroke="none"/><path d="M0 12c0 6.627 5.373 12 12 12a12 12 0 0012-12c0-6.627-5.373-12-12-12S0 5.373 0 12zm1.412 0C1.412 6.152 6.152 1.412 12 1.412A10.588 10.588 0 0122.588 12c0 5.848-4.74 10.588-10.588 10.588-5.848 0-10.588-4.74-10.588-10.588z" id="Shape" fill="#8C0014" fill-rule="evenodd" stroke="none"/><g id="delivery-truck" transform="translate(4 4)"><g id="delivery-truck" stroke="none"><path d="M0 0h16v16H0V0z" id="Rectangle-4" fill="none"/><path d="M.561.709v7.044c0 .13.103.236.229.236h7.717a.232.232 0 00.228-.236V.71A.697.697 0 008.05 0H1.246a.697.697 0 00-.685.709zM16 8.933v.716c0 .13-.102.237-.228.237h-1.849c-.132-.939-.912-1.662-1.855-1.662s-1.723.723-1.855 1.662H6.49a1.958 1.958 0 00-.631-1.19h3.529V1.94c0-.261.204-.473.457-.473H12a1.81 1.81 0 011.514.832l1.39 2.13c.203.313.312.68.312 1.058v3.21h.556c.126 0 .228.106.228.237zm-3.427-6.084l1.11 1.634c.107.156 0 .372-.186.372h-2.844a.232.232 0 01-.229-.236V2.985c0-.13.103-.236.229-.236h1.733c.074 0 .144.037.187.1zM.228 8.696h3.184a1.958 1.958 0 00-.632 1.19H.228A.232.232 0 010 9.649v-.716c0-.131.102-.237.228-.237zm4.407 2.94c.785 0 1.42-.658 1.42-1.47 0-.812-.635-1.47-1.42-1.47-.784 0-1.42.658-1.42 1.47 0 .812.636 1.47 1.42 1.47zm8.854-1.47c0 .812-.637 1.47-1.421 1.47-.785 0-1.42-.658-1.42-1.47 0-.812.635-1.47 1.42-1.47.784 0 1.42.658 1.42 1.47zm-8.144 0a.723.723 0 00-.71-.735c-.392 0-.71.33-.71.735 0 .406.318.735.71.735.392 0 .71-.329.71-.735zm6.723-.735c.392 0 .71.33.71.735a.723.723 0 01-.71.735.723.723 0 01-.71-.735c0-.406.318-.735.71-.735z" transform="translate(0 1.778)" id="Shape" fill="#8C0014" fill-rule="evenodd"/></g></g></g></svg>
